X:1     %Music
T:Guise O' Tough
B:The Scottish Folksinger" 1973, Norman Buchan & Peter Hall 
F:http://www.folkinfo.org/songs
M:4/4     %Meter
L:1/8     %
K:G
B2 |d2 B2 d2 (e/d3/2) |B2 A2 G2 B2 |d2 B2 d2 (e/d3/2) | B4 A2 
w:Ye'll a' hae heard o'_ Tat-tie Jock Like-wise o' Mut-ton_ Peg-gie. 
G2 |d2 B2 d2 (e/d3/2) |B2 A2 G2 GG |G2 B2 A2 G2 | E4 E2 z2 |z4
w:They had a fair-mie_ owre in Fife, and the name o' it was Craig-ie. 
 D3 E |G2 G/G3/2 G4 |G2 A2 G2 e2 | d2 e/d3/2 B4 |A2 G2 G4-|G6 z2 |]
w:Sing-ing ah rid-dle aye roo dum di do. A rid-dle aye roo dum day. *